source/img/small-cross.svg

<?xml version="1.0" encoding="UTF-8" standalone="no"?>
<!-- Generator: Adobe Illustrator 21.0.0, SVG Export Plug-In . SVG Version: 6.00 Build 0)  -->

<svg
   xmlns:dc="http://purl.org/dc/elements/1.1/"
   xmlns:cc="http://creativecommons.org/ns#"
   xmlns:rdf="http://www.w3.org/1999/02/22-rdf-syntax-ns#"
   xmlns:svg="http://www.w3.org/2000/svg"
   xmlns="http://www.w3.org/2000/svg"
   xmlns:sodipodi="http://sodipodi.sourceforge.net/DTD/sodipodi-0.dtd"
   xmlns:inkscape="http://www.inkscape.org/namespaces/inkscape"
   version="1.1"
   id="Layer_1"
   x="0px"
   y="0px"
   viewBox="0 0 9 9"
   style="enable-background:new 0 0 9 9;"
   xml:space="preserve"
   sodipodi:docname="small-cross.svg"
   inkscape:version="0.92.1 r15371"><metadata
   id="metadata9"><rdf:RDF><cc:Work
       rdf:about=""><dc:format>image/svg+xml</dc:format><dc:type
         rdf:resource="http://purl.org/dc/dcmitype/StillImage" /></cc:Work></rdf:RDF></metadata><defs
   id="defs7" /><sodipodi:namedview
   pagecolor="#ffffff"
   bordercolor="#666666"
   borderopacity="1"
   objecttolerance="10"
   gridtolerance="10"
   guidetolerance="10"
   inkscape:pageopacity="0"
   inkscape:pageshadow="2"
   inkscape:window-width="1680"
   inkscape:window-height="987"
   id="namedview5"
   showgrid="false"
   inkscape:zoom="26.222222"
   inkscape:cx="4.5"
   inkscape:cy="4.5"
   inkscape:window-x="-8"
   inkscape:window-y="-8"
   inkscape:window-maximized="1"
   inkscape:current-layer="Layer_1" />
<path
   d="M5.2,4.5l3.7-3.7C9,0.6,9,0.3,8.9,0.1S8.4,0,8.2,0.1L4.5,3.8L0.8,0.1C0.6,0,0.3,0,0.1,0.1S0,0.6,0.1,0.8l3.7,3.7L0.1,8.2   C0,8.4,0,8.7,0.1,8.9C0.2,9,0.4,9,0.5,9s0.2,0,0.3-0.1l3.7-3.7l3.7,3.7C8.3,9,8.4,9,8.5,9s0.2,0,0.3-0.1C9,8.7,9,8.4,8.9,8.2   L5.2,4.5z"
   id="path2" />
<path
   style="fill:#cccccc;fill-opacity:1;stroke-width:0.03813559"
   d="M 0.23995385,8.9520948 C 0.14349767,8.9226526 0.10925769,8.8846448 0.07809026,8.772419 0.02772106,8.5910533 0.02770243,8.4533804 0.07802886,8.3179487 0.09997011,8.258903 0.95366536,7.3739933 1.9751294,6.3514823 L 3.8323369,4.4923714 1.9542486,2.6139958 0.07616055,0.73562026 0.03075979,0.5191708 C -0.03155662,0.22207543 0.01295144,0.13177829 0.25128951,0.07176407 0.35122218,0.04660074 0.50267147,0.03723686 0.58822959,0.05093158 0.73190696,0.07392907 0.88548662,0.21734048 2.621822,1.9498831 L 4.5,3.8239585 6.378178,1.9498024 8.2563559,0.07564627 8.4661017,0.03067468 c 0.2927307,-0.06276443 0.4021131,-0.01565075 0.4596372,0.19797693 0.024193,0.0898457 0.033444,0.24075796 0.020558,0.33536058 C 8.923495,0.73141021 8.8725856,0.78631429 7.0454528,2.6140067 L 5.1680383,4.4919965 7.0416027,6.3703625 C 9.1172383,8.4513177 9.0434959,8.3586764 8.8935357,8.6969117 8.7952153,8.9186739 8.7171372,8.9733051 8.4985192,8.9733051 H 8.3138453 L 6.4069227,7.0666684 4.5,5.1600318 2.5985255,7.0612211 C 0.72153744,8.9379275 0.69489557,8.9625844 0.5296696,8.9759231 0.43760978,8.9833553 0.30723769,8.972632 0.23995385,8.9520948 Z"
   id="path4486"
   inkscape:connector-curvature="0" /><path
   style="fill:#cccccc;fill-opacity:1;stroke-width:0.03813559"
   d=""
   id="path4488"
   inkscape:connector-curvature="0" /><path
   style="fill:#cccccc;fill-opacity:1;stroke-width:0.03813559"
   d=""
   id="path4490"
   inkscape:connector-curvature="0" /><path
   style="fill:#cccccc;fill-opacity:1;stroke-width:0.03813559"
   d=""
   id="path4492"
   inkscape:connector-curvature="0" /><path
   style="fill:#cccccc;fill-opacity:1;stroke-width:0.03813559"
   d=""
   id="path4494"
   inkscape:connector-curvature="0" /><path
   style="fill:#cccccc;fill-opacity:1;stroke-width:0.03813559"
   d="M 0.20592092,8.9250517 C 0.12354823,8.8700499 0.07627119,8.7274346 0.07627119,8.5339522 c 0,-0.2419227 -0.11891064,-0.1096692 2.13373541,-2.373157 L 3.8704572,4.4923534 1.9694092,2.5910201 0.06836116,0.68968693 0.04804552,0.43659686 0.02772988,0.18350677 0.16518245,0.12607542 c 0.0755989,-0.03158725 0.21517891,-0.05743135 0.31017776,-0.05743135 0.1442245,0 0.19948679,0.02316451 0.33491128,0.14038612 C 0.89947388,0.28624256 1.7661571,1.1399364 2.7362342,2.1061276 L 4.5000107,3.8628389 6.3972511,1.9682814 c 1.8718623,-1.86921505 1.8996571,-1.89490329 2.077896,-1.92042192 0.3439922,-0.04924966 0.4485817,0.04424796 0.4485817,0.40100896 0,0.14421177 -0.0228,0.21443804 -0.1015627,0.31282425 C 8.766307,0.83146935 7.9130906,1.6989406 6.9261304,2.6894066 L 5.131657,4.4902541 6.961926,6.3313558 c 1.0066481,1.0126061 1.8622887,1.9027114 1.9014243,1.978012 0.1515443,0.291589 -0.048729,0.6448695 -0.3655732,0.6448695 H 8.3329074 L 6.4164573,7.038069 4.5000072,5.1219008 2.6790291,6.9365071 C 1.6774911,7.9345407 0.80096087,8.7968162 0.73118422,8.8526753 0.63409351,8.9304006 0.56248932,8.9541004 0.42609947,8.9536534 0.3280795,8.9533483 0.22899916,8.9404616 0.20592092,8.9250517 Z"
   id="path4496"
   inkscape:connector-curvature="0" /></svg>

<svg xmlns="http://www.w3.org/2000/svg" viewBox="0 0 9 9"><path d="M5.2 4.5L8.9.8c.1-.2.1-.5 0-.7s-.5-.1-.7 0L4.5 3.8.8.1C.6 0 .3 0 .1.1S0 .6.1.8l3.7 3.7L.1 8.2c-.1.2-.1.5 0 .7.1.1.3.1.4.1s.2 0 .3-.1l3.7-3.7 3.7 3.7c.1.1.2.1.3.1s.2 0 .3-.1c.2-.2.2-.5.1-.7L5.2 4.5z"/><path d="M.24 8.952c-.097-.03-.13-.067-.162-.18-.05-.18-.05-.319 0-.454.022-.06.876-.944 1.897-1.967l1.857-1.859-1.878-1.878L.076.736.031.519C-.032.222.013.132.25.072.351.047.503.037.588.05c.144.024.297.167 2.034 1.9L4.5 3.824 6.378 1.95 8.256.076l.21-.045c.293-.063.402-.016.46.198.024.09.033.24.02.335-.023.167-.073.222-1.9 2.05L5.167 4.492 7.042 6.37c2.075 2.081 2.001 1.99 1.852 2.327-.099.222-.177.276-.395.276h-.185L6.407 7.067 4.5 5.16 2.599 7.061C.722 8.938.695 8.963.529 8.976a.944.944 0 01-.289-.024z" fill="#ccc"/><path d="M.206 8.925c-.082-.055-.13-.198-.13-.391 0-.242-.119-.11 2.134-2.373l1.66-1.669-1.9-1.901L.067.69.048.437.028.184.165.126A.964.964 0 01.475.07c.145 0 .2.023.335.14.09.077.956.93 1.926 1.897L4.5 3.863l1.897-1.895C8.27.1 8.297.073 8.475.048c.344-.05.449.044.449.4 0 .145-.023.215-.102.314-.056.07-.909.937-1.896 1.927L5.132 4.49l1.83 1.841C7.969 7.344 8.824 8.234 8.863 8.31c.152.292-.048.645-.365.645h-.165L6.416 7.038 4.5 5.122 2.679 6.937A118.49 118.49 0 01.731 8.853a.414.414 0 01-.305.1.632.632 0 01-.22-.028z" fill="#ccc"/></svg>
